!!!OTL: Die ueppigen Bauern.
!!!ARE: Europa, Mitteleuropa, Deutschland
!!!SCT: A0451
!!!TXL: @@GMH
!!!YEM: Copyright 1995, estate of Helmut Schaffrath.
**kern	**text
*M4/2	*
*met(c|)	*
*clefC4	*
*k[b-]	*
*G:dor	*
!LO:TX:a:t=dor. tr.	!
{2G	Von
=1	=1
2d	üp-
2d	-pig-
2d	-li-
2d	-chen
=2	=2
1G	din-
2G}	-gen
{2G	ſo
=3	=3
2B-	wil
2B-	ichs
2A	he-
2A	-ben
=4	=4
1G	an,}
2r}	.
{2G	Ein
=5	=5
2d	a-
2d	-ben-
2d	-theur
2d	ʒu
=6	=6
1G	ſin-
2G}	-gen,
{2G	die
=7	=7
2B-	ich
2B-	ge-
2A	-ſe-
2A	-hen
=8	=8
1G	han:}
2r}	.
{2G	Es
=9	=9
2F	gſchach
2E	an
2F	el-
2G	-nem
=10	=10
1A	dan-
2A	-tʒe
2B-	an
=11	=11
2A	ei-
2A	-nem
2A	a-
2A	-bent
=12	=12
1D	ſpat,
2r}	.
{2D	da
=13	=13
2G	ſach
2F	ich
2G	vmb-
2A/	-her
=14	=14
1B-	ſchwantʒen
2A	.
2G	ein
=15	=15
2F	magt
2G	mit
2A/	j-
2G	-rem
=16	=16
1B-	kran-
2A}	-tʒe,
{2G	gar
=17	=17
2B-	glat
2B-	von
2A/	ſtat,
2G	in
=18	=18
2B-	hüp-
2B-	-ſcher
2A/	wat,
2G	die
=19	=19
2B-	magt
2B-	was
2A}	kradt;
{2G	der
=20	=20
2.F#i	paur
4G	trůg
2A/	an
2G	ein
=21	=21
1d	pan-
2d}	-tʒer,
{2d	der
=22	=22
2d	mit
2d	jr
2d	vmb-
2d	-her
=23	=23
1.G/ll}	trat.
==	==
!!!GTL: Lieder aus verschiedene andere Stände, als Bauern, Handwerker, Studenten, Mönche ⁊c.
!!!AGN: Romanze, Ballade, Lied
!! Schoeffer 1537 No. 62 und Forster II No. 56.
!!!ONB: ESAC (Essen Associative Code) Database: ALTDEU
!!!AMT: simple quadruple
!!!AIN: vox
!!!EED: Helmut Schaffrath
!!!EEV: 1.0
!!!RDF**kern: i = editorial accidental
!!!RDF**kern: l = terminal long
!!!AMD: Dorian
!!!URL-scan: https://rosdok.uni-rostock.de/mcrviewer/recordIdentifier/rosdok_ppn738218359/iview2/phys_0630.iview2?x=-27.342981878423416&y=919.7498744251207&scale=0.6340035897852&rotation=0&layout=singlePageLayout&logicalDiv=log_0016
!!!ENC: Anna Maria Matuszewska
!!!EEV: 2024/18/03
*-	*-
